X: 14000
T: Frank Neylon's
R: reel
M: 4/4
K: Amixolydian
efed cAAB|cAeA cAAd|efeA cdef|gfge dBGB:|
K:C
c2ec gcec|c2ge dBGB|c2ec gceg|a^fge dBGB|
c2ec gcec|c2ge dBGB|cde^f g2fg|afge d2^cd|

